X:1
T:Dieu qui donna
T:Jean de Castro
T:Source : La fleur des chansons à 3---Louvain---P.Phalèse---1574. Editor ; André Vierendeels (17/09/18) Notes : Original clefs : C1, C3, C4 Original note values have been halved Editorial accidentals above the staff
T:Dieu qui donna
T:©
T:©
T:©
T:©
T:©
T:©
C:Jean de Castro
Z:©
%%score [ 1 [ 2 3 ] ]
L:1/8
Q:1/4=120
M:2/2
K:F
V:1 treble nm="Soprano" snm="S"
V:2 treble-8 nm="Tenor 1" snm="T 1"
V:3 treble-8 nm="Tenor 2" snm="T 2"
V:1
 c8 | A6 A2 | F2 F2 c3 B/A/ | G4 z4 | c6 A2- | A2 A2 F2 F2 | B2 G4 E2- | E2 C2 c3 B | AG A4 F2- | %9
w: Dieu|qui don-|na la loy, _ _|_|Dieu qui|_ don- na la|loy, Dieu qui|_ don- na _|_ _ _ la|
 F2 D2 z2 G2 | B3 B G2 A2 | G4 A4 | z4 c2 cc | A2 F2 G2 z c | cc A2 z GGG | E2 C2 FGAB | %16
w: _ loy du|no- ble ma- ri-|a- ge,|des- lors qu'A-|dam es- toit, des-|lors qu'A- dam, des- lors qu'A-|dam es- toit _ _ _|
 c2 cc/c/ BA G2 | A2 z2 z4 | G2 Ac BA G2- | GF/E/ D2 E4 | z2 G4 G2 | A3 A G4 | z2 A4 G2 | %23
w: _ au io- ly vert bos- ca-|ge,|au io- ly vert bos- ca-|* * * * ge,|Ia- ques|Al- le- wyn,|Ia- que|
 A2 F2 G4 | z2 c4 B2 | A2 B4 A2- | A2 G2 A2 z c | FGAB cc =B2 | ccFG AB c2- | cF E2 FcF>G | %30
w: Al- le- wyn|tien- n'en|si he- reu-|* se paix, a-|vec E- li- sa- bet Hoef- na-|gel, a- vec E- li- sa- bet|_ Hoef- na- gel, a- vec E-|
 A>Bcd =BccB | c4 z FAA | c2 G2 A2 z F | AAcc F A2 c- | cBd>d ccFF | G2 A2 B4 | A2 z A B2 G2 | %37
w: li- sa- bet Hoef- na- gel de- sor-|mais, que quand ils|lais- se- ront, que|quand ils lais- se- ront, que quand|_ ils lais- se- ront ce mon- de|trans- i- toi-|re, ils puis- sent|
 A2 =B2 c2 A2 | G2 d2 cA G2 | A c2 A2 FAc | B2 G2 AGFE | D2 E2 z CFG | AB c3 B/A/ G2 | A8 |] %44
w: par- ve- nir en|e- ter- nel- le gloi-|re, ils puis- sent par- ve-|nir en e- ter- nel- le|gloi- re, en e- ter-|nel- le gloi- * * *|re.|
V:2
 z4 f4- | f4 d4- | d2 d2 c2 f2 | e2 g4 e2- | e2 e2 c2 c2 | f4 z2 d2- | d2 B2 G2 c2- | c2 F2 AGAB | %8
w: Dieu|_ qui|_ don- na la|loy, Dieu qui|_ don- na la|loy, Dieu|_ qui don- na|_ la loy, _ _ _|
 c2 f4 d2- | d2 G2 d2 e2 | ffgg ee f2- | fe/d/ e2 ffff | d2 B2 F2 z f | ff d2 c2 F2 | %14
w: _ Dieu qui|_ don- na la|loy du no- ble ma- ri- a-|* * * * ge, des- lors qu'A-|dam es- toit, des-|lors qu'A- dam es- toit,|
 z fff e2 z c | cc A2 F2 f2 | z fec df e2 | f2 ag/f/ ge f2 | e2 z f d>ABc | dc3/2B/4A/4B c4 | %20
w: des- lors qu'A- dam, des-|lors qu'A- dam es- toit|au io- ly vert bos- ca-|ge, au io- ly vert bos- ca,-|ge, au io- ly vert bos-|ca- * * * * ge,|
 z2 e2 d2 ee | f2 f2 c4 | z2 f4 e2 | f2 d2 e2 e2 | f4 d4 | f4 e4 | d4 e2 z c | defd ef d2 | %28
w: Ia- ques Al- le-|wyn, Ia- que,|Ia- ques|Al- le- wyn tien-|n'en si|heu- reu-|se paix, a-|vec E- li- sa- bet Hoef- na-|
 e2 z2 z gcd | efgg a4 | f2 f2 d_edd | c2 z c ddff | c2 z2 z cdd | ff c2 z F A2 | z ddd ef d2 | %35
w: gel a- vec E-|li- sa- bet Hoef- na-|gel, Hoef- na- gel de- sor-|mais, que quand ils lais- se-|ront, que quand ils|lais- se- ront, que quand|ils lais- se- ront ce mon-|
 d2 f3 f e2 | f c2 d2 G2 c- | c d2 e2 c2 f- | fe f2 g f3/2e/4d/4e | f2 z f2 d2 c | d>dee fedc | %41
w: de trans- i- toi-|re, ils puis- sent par-|* ve- nir en e-|* ter- nel- le gloi- * * *|re, ils puis- sent|par- ve- nir en e- ter- nel- le|
 =B2 cG ccde | f2 ed e f2 e | f8 |] %44
w: gloi- re, en e- ter- nel- le|gloi- * * * * *|re.|
V:3
 z8 | z8 | z8 | c8 | A6 A2 | F2 F2 B3 A | G4 z4 | A4 F4- | F2 F2 D2 D2 | B3 B B2 c2 | d2 B2 c4- | %11
w: |||Dieu|qui don-|na la loy, _|_|Dieu qui|_ don- na la|loy du no- ble|ma- ri- a-|
 c4 F2 z f | ff d2 c2 F2 | z4 z ccc | A2 F2 C4 | z8 | F2 cA GF c2 | F2 fe/d/ cc d2 | c2 z F GF_EC | %19
w: * ge, des-|lors qu'A- dam es- toit,|des- lors qu'A-|dam es- toit||au io- ly vert bos- ca-|ge, au io- ly vert bos- ca-|ge, au io- ly vert bos-|
 G4 C2 c2- | c2 c2 =B2 c2 | F2 f4 e2 | f2 F2 c4 | z4 c4 | F4 G4 | d4 c4 | B4 A4 | z4 z2 G2 | %28
w: ca- ge, Ia-|* ques Al- le-|wyn, Ia- ques|Al- le- wyn,|tien-|n'en si|heu- reu-|se paix,|a-|
 C2 z c FGAB | cd c2 F4- | F2 F2 G4 | A4 z2 F2 | AAcc F2 z2 | z2 z C DDFF | CG B2 A2 B2- | %35
w: vec, a- vec E- li- sa-|bet Hoef- na- gel|_ de- sor-|mais, que|quand ils lais- se- ront|que quand ils lais- se-|ront ce mon- de trans-|
 B2 A2 G4 | F2 z F G2 C2 | F2 G2 A2 F2 | c2 d2 ef c2 | F4 z4 | z2 C2 FGBc | G2 C2 z2 z C | %42
w: * i- toi-|re, ils puis- sent|par- ve- nir en|e- ter- nel- le gloi-|re,|en e- ter- nel- le|gloi- re, en|
 FGAB c4 | F8 |] %44
w: e- ter- nel- le gloi-|re.|

